X:1
T: Loch Leven Castle
C:
R:Reel
Q: 232
K:Am
M:4/4
L:1/8
|:cB|A2 AB AG EG|AG AB cB cd|ef ga ge de|c2 G2 G2 cB|
A2 AB AG EG|AG AB cB cd|ea ga ge de|c2 A2 A2:|
eg|a2 ab ag eg|a^g ab a2 =ge|de ga ge de|c2 G2 G2 eg|
a2 ab ag eg|a^g ab a2 =ge|de ga ge de|c2 A2 A2 cB|
a2 ab ag eg|a^g ab a=g e^f|g^f ga ge de|c2 G2 G2 cB|
A2 AB AG EG|AG AB cB cd|ea ^ga =ge de|c2 A2 A2||
